X:1
T:Hallelujah ’Tis Done!
T:Hallelujah ’Tis Done!
T:Philip Paul Bliss
T:Philip Paul Bliss, 1874
T:Public Domain Courtesy of the Cyber Hymnal™
C:Philip Paul Bliss
Z:Public Domain
Z:Courtesy of the Cyber Hymnal™
%%score ( 1 2 ) ( 3 4 )
L:1/8
M:3/4
K:G
V:1 treble 
V:2 treble 
V:3 bass 
V:4 bass 
V:1
 D>D | [DG]2 [DG]2 [DG]2 | G4 [GA]>[GB] | [GB]2 [GA]2 G2 | [FA]4 D>D | [DA]2 [DA]2 [DA]2 | %6
w: 1.~’Tis the|pro- mise of|God, full sal-|va- tion to|give Un- to|him who on|
w: 2.~Though the|path- way be|lone- ly, and|dan- ger- ous,|too, Sure- ly|Je- sus is|
w: 3.~Ma- ny|loved ones have|I in yon|heav- en- ly|throng, They are|safe now in|
w: 4.~Lit- tle|child- ren I|see stand- ing|close by their|king, And He|smiles as their|
w: 5.~There are|pro- phets and|kings in that|throng I be-|hold, And they|sing as they|
w: 6.~There’s a|part in that|chor- us for|you and for|me, And the|theme of our|
 [DA]4 [DB]>[Dc] | [Dc]2 [DB]2 [DA]2 | [DB]4 |:"^Refrain" [Gd]>[Gd] | [Gd]2 [Gd]2 [Gd]2 | %11
w: Je- sus, His|Son, will be-|lieve.|||
w: a- ble to|car- ry me|through.|||
w: glor- y, and|this is their|song:|Hal- le-|lu- jah, ’tis|
w: song of sal-|va- tion they|sing:|Hal- le-|lu- jah, ’tis|
w: march through the|streets of pure|gold:|||
w: prais- es for-|ev- er will|be:|||
 (e2 d2) [GB]>[GB] | [GB]2 [GB]2 [GB]2 | (c2 B2) [FA]>[FA] | G2 G2 G2 | [EA]2 [EG]2 [CE]2 |1 %16
w: |||||
w: |||||
w: done! * I be-|lieve on the|Son; * I am|saved by the|blood of the|
w: done! * I be-|lieve on the|Son; * I am|saved by the|blood of the|
w: |||||
w: |||||
 [B,D]2 [DG]2 [FA]2 | [GB]4 :|2 [B,D]2 [DG]2 [DA]2 || [DG]4 |] %20
w: ||||
w: ||||
w: cru- ci- fied|One;|||
w: ~ ~ ~|~|cru- ci- fied|One.|
w: ||||
w: ||||
V:2
 D>D | x6 | G4 x2 | x4 G2 | x4 D>D | x6 | x6 | x6 | x4 |: x2 | x6 | G4 x2 | x6 | G4 x2 | G2 G2 G2 | %15
 x6 |1 x6 | x4 :|2 x6 || x4 |] %20
V:3
 [G,B,]>[G,B,] | [G,B,]2 [G,B,]2 [G,B,]2 | [G,B,]4 [G,C]>[G,D] | [G,D]2 [G,C]2 [G,B,]2 | %4
 [D,D]4 [D,F,]>[D,F,] | [D,F,]2 [D,F,]2 [D,F,]2 | [D,F,]4 [D,G,]>[D,A,] | [D,A,]2 [D,G,]2 [D,F,]2 | %8
 G,4 |: [G,B,]>[G,B,] | [G,B,]2 [G,B,]2 [G,B,]2 | (C2 B,2) [G,D]>[G,D] | [G,D]2 [G,D]2 [G,D]2 | %13
 (E2 D2) [D,C]>[D,C] | [E,B,]2 [E,B,]2 [E,B,]2 | [C,C]2 [C,G,]2 [C,G,]2 |1 [D,G,]2 [D,B,]2 [D,D]2 | %17
 [G,D]4 :|2 [D,G,]2 [D,B,]2 [D,C]2 || [G,,B,]4 |] %20
V:4
 x2 | x6 | x6 | x6 | x6 | x6 | x6 | x6 | x4 |: x2 | x6 | G,4 x2 | x6 | G,4 x2 | x6 | x6 |1 x6 | %17
 x4 :|2 x6 || x4 |] %20

